images/icons/Iconbottle.svg

<svg width="18" height="25" viewBox="0 0 18 25" fill="none" xmlns="http://www.w3.org/2000/svg">
<path fill-rule="evenodd" clip-rule="evenodd" d="M12.1184 0.0625167L12.1127 0.0625H5.88723L5.88158 0.0625167H4.625C4.10723 0.0625167 3.6875 0.48225 3.6875 1.00002C3.6875 1.51778 4.10723 1.93752 4.625 1.93752H4.94973V8.2639C-0.614906 10.8944 -1.4188 18.5649 3.58274 22.2744L3.95149 22.5479C6.94983 24.7717 11.0501 24.7717 14.0485 22.5479L14.4172 22.2744C19.4188 18.5649 18.6149 10.8944 13.0502 8.2639V1.93752H13.375C13.8928 1.93752 14.3125 1.51778 14.3125 1.00002C14.3125 0.48225 13.8928 0.0625167 13.375 0.0625167H12.1184ZM3.87107 11.3125H14.1289C13.5636 10.7185 12.8637 10.2197 12.0345 9.86218C11.513 9.63735 11.1752 9.1239 11.1752 8.55604V1.93752H6.82473V8.55604C6.82473 9.1239 6.48696 9.63735 5.9655 9.86218C5.13629 10.2197 4.43636 10.7185 3.87107 11.3125ZM6.5 17.25C5.80964 17.25 5.25 17.8097 5.25 18.5C5.25 19.1904 5.80964 19.75 6.5 19.75C7.19036 19.75 7.75 19.1904 7.75 18.5C7.75 17.8097 7.19036 17.25 6.5 17.25ZM9 16C9 15.3097 9.55964 14.75 10.25 14.75C10.9404 14.75 11.5 15.3097 11.5 16C11.5 16.6904 10.9404 17.25 10.25 17.25C9.55964 17.25 9 16.6904 9 16Z" fill="black"/>
</svg>

<svg width="18" height="25" fill="none" xmlns="http://www.w3.org/2000/svg"><path fill-rule="evenodd" clip-rule="evenodd" d="M12.118.063H4.625a.937.937 0 1 0 0 1.875h.325v6.326c-5.565 2.63-6.369 10.3-1.367 14.01l.368.274a8.475 8.475 0 0 0 10.098 0l.368-.274c5.002-3.71 4.198-11.38-1.367-14.01V1.938h.325a.937.937 0 1 0 0-1.875h-1.257Zm-8.247 11.25H14.13a6.338 6.338 0 0 0-2.095-1.45 1.422 1.422 0 0 1-.859-1.307V1.938h-4.35v6.618c0 .568-.338 1.081-.86 1.306-.829.358-1.529.857-2.094 1.45ZM6.5 17.25a1.25 1.25 0 1 0 0 2.5 1.25 1.25 0 0 0 0-2.5ZM9 16a1.25 1.25 0 1 1 2.5 0A1.25 1.25 0 0 1 9 16Z" fill="#000"/></svg>
